icon/ir/peace-hand.svg

<svg viewBox="0 0 24 24" stroke-width="1.5" fill="none" xmlns="http://www.w3.org/2000/svg" height="1em" width="1em">
  <path d="M14.1488 9.47163V3.61153C14.1488 2.72151 13.4273 2 12.5373 2V2C11.6473 2 10.9258 2.72151 10.9258 3.61153V8.44611" stroke="currentColor" stroke-linecap="round"/>
  <path d="M16.346 12.841L18.5217 5.58862C18.7755 4.74265 18.2886 3.85248 17.4394 3.60984V3.60984C16.5943 3.3684 15.7142 3.8609 15.4779 4.70743L14.1484 9.47149" stroke="currentColor" stroke-linecap="round"/>
  <path d="M7.61935 9.24985L8.67489 11.5913C9.03961 12.4003 8.68159 13.352 7.87404 13.72C7.06183 14.0901 6.10347 13.7296 5.73663 12.9159L4.68109 10.5745C4.31637 9.76542 4.67439 8.81376 5.48193 8.44574C6.29415 8.07559 7.25251 8.43614 7.61935 9.24985Z" stroke="currentColor" stroke-linecap="round"/>
  <path d="M11.7192 12.2615V12.2615C11.9239 11.694 11.8998 11.0692 11.6518 10.5192L10.5787 8.13874C10.2181 7.33892 9.27613 6.98454 8.4778 7.34836V7.34836C7.66469 7.71892 7.31885 8.68832 7.71382 9.48986L7.84946 9.76511" stroke="currentColor" stroke-linecap="round"/>
  <path d="M13.8566 17.6767L14.3487 16.6927C14.3976 16.5947 14.3461 16.4763 14.241 16.4454L10.6903 15.4011C9.97853 15.1918 9.51797 14.5038 9.59563 13.766V13.766C9.68372 12.9292 10.4284 12.3188 11.2662 12.3968L16.0542 12.8422C16.0542 12.8422 19.8632 13.4282 18.5447 17.2372C17.2262 21.0463 16.7867 22.3648 13.8566 22.3648C11.9521 22.3648 9.16855 22.3648 9.16855 22.3648H8.87555C6.52912 22.3648 4.62697 20.4627 4.62697 18.1163V18.1163L4.48047 9.91211" stroke="currentColor" stroke-linecap="round"/>
</svg>

<svg width="24" height="24" stroke-width="1.5" fill="none" xmlns="http://www.w3.org/2000/svg"><path d="M14.149 9.472v-5.86c0-.89-.722-1.612-1.612-1.612v0c-.89 0-1.611.722-1.611 1.612v4.834" stroke="currentColor" stroke-linecap="round"/><path d="m16.346 12.841 2.176-7.252a1.584 1.584 0 0 0-1.083-1.98v0a1.585 1.585 0 0 0-1.961 1.098l-1.33 4.764M7.62 9.25l1.055 2.341a1.612 1.612 0 0 1-2.938 1.325L4.68 10.575A1.612 1.612 0 0 1 7.62 9.25Z" stroke="currentColor" stroke-linecap="round"/><path d="M11.72 12.261v0a2.322 2.322 0 0 0-.068-1.742l-1.073-2.38a1.584 1.584 0 0 0-2.101-.79v0a1.584 1.584 0 0 0-.764 2.14l.135.276" stroke="currentColor" stroke-linecap="round"/><path d="m13.857 17.677.492-.984a.176.176 0 0 0-.108-.248l-3.55-1.044a1.537 1.537 0 0 1-1.095-1.635v0a1.537 1.537 0 0 1 1.67-1.37l4.788.446s3.81.586 2.49 4.395c-1.318 3.81-1.757 5.128-4.687 5.128H8.876a4.249 4.249 0 0 1-4.249-4.249v0L4.48 9.912" stroke="currentColor" stroke-linecap="round"/></svg>
